src/asset/img/cursor/cursor-no.svg

<svg width="55" height="55" viewBox="0 0 55 55" fill="none" xmlns="http://www.w3.org/2000/svg">
<g filter="url(#filter0_di_22_23)">
<path fill-rule="evenodd" clip-rule="evenodd" d="M38.3579 35.3578C40.5474 33.1683 40.5474 29.6184 38.3579 27.4289L30.429 19.5L38.3579 11.571C40.5474 9.38153 40.5474 5.83162 38.3579 3.64211C36.1684 1.4526 32.6185 1.4526 30.429 3.64211L22.5 11.571L14.5711 3.64211C12.3816 1.4526 8.83169 1.4526 6.64218 3.64211C4.45266 5.83162 4.45266 9.38153 6.64218 11.571L14.5711 19.5L6.64216 27.4289C4.45264 29.6184 4.45265 33.1683 6.64216 35.3578C8.83167 37.5473 12.3816 37.5473 14.5711 35.3578L22.5 27.4289L30.429 35.3578C32.6185 37.5474 36.1684 37.5473 38.3579 35.3578Z" fill="#E5A7D5"/>
</g>
<defs>
<filter id="filter0_di_22_23" x="3.05176e-05" y="-2.28882e-05" width="55" height="55" filterUnits="userSpaceOnUse" color-interpolation-filters="sRGB">
<feFlood flood-opacity="0" result="BackgroundImageFix"/>
<feColorMatrix in="SourceAlpha" type="matrix" values="0 0 0 0 0 0 0 0 0 0 0 0 0 0 0 0 0 0 127 0" result="hardAlpha"/>
<feOffset dx="5" dy="8"/>
<feGaussianBlur stdDeviation="5"/>
<feComposite in2="hardAlpha" operator="out"/>
<feColorMatrix type="matrix" values="0 0 0 0 0.462745 0 0 0 0 0.537255 0 0 0 0 0.74902 0 0 0 1 0"/>
<feBlend mode="normal" in2="BackgroundImageFix" result="effect1_dropShadow_22_23"/>
<feBlend mode="normal" in="SourceGraphic" in2="effect1_dropShadow_22_23" result="shape"/>
<feColorMatrix in="SourceAlpha" type="matrix" values="0 0 0 0 0 0 0 0 0 0 0 0 0 0 0 0 0 0 127 0" result="hardAlpha"/>
<feOffset dx="5" dy="4"/>
<feGaussianBlur stdDeviation="2.5"/>
<feComposite in2="hardAlpha" operator="arithmetic" k2="-1" k3="1"/>
<feColorMatrix type="matrix" values="0 0 0 0 1 0 0 0 0 0.9 0 0 0 0 0.975926 0 0 0 1 0"/>
<feBlend mode="normal" in2="shape" result="effect2_innerShadow_22_23"/>
</filter>
</defs>
</svg>

<svg width="55" height="55" viewBox="0 0 55 55" fill="none" xmlns="http://www.w3.org/2000/svg"><g filter="url(#a)"><path fill-rule="evenodd" clip-rule="evenodd" d="M38.358 35.358a5.607 5.607 0 0 0 0-7.93L30.429 19.5l7.929-7.929a5.607 5.607 0 0 0-7.929-7.929L22.5 11.571l-7.929-7.929a5.607 5.607 0 0 0-7.929 7.929l7.93 7.929-7.93 7.929a5.607 5.607 0 1 0 7.93 7.929l7.928-7.93 7.929 7.93a5.606 5.606 0 0 0 7.929 0Z" fill="#E5A7D5"/></g><defs><filter id="a" x="0" y="0" width="55" height="55" filterUnits="userSpaceOnUse" color-interpolation-filters="sRGB"><feFlood flood-opacity="0" result="BackgroundImageFix"/><feColorMatrix in="SourceAlpha" values="0 0 0 0 0 0 0 0 0 0 0 0 0 0 0 0 0 0 127 0" result="hardAlpha"/><feOffset dx="5" dy="8"/><feGaussianBlur stdDeviation="5"/><feComposite in2="hardAlpha" operator="out"/><feColorMatrix values="0 0 0 0 0.462745 0 0 0 0 0.537255 0 0 0 0 0.74902 0 0 0 1 0"/><feBlend in2="BackgroundImageFix" result="effect1_dropShadow_22_23"/><feBlend in="SourceGraphic" in2="effect1_dropShadow_22_23" result="shape"/><feColorMatrix in="SourceAlpha" values="0 0 0 0 0 0 0 0 0 0 0 0 0 0 0 0 0 0 127 0" result="hardAlpha"/><feOffset dx="5" dy="4"/><feGaussianBlur stdDeviation="2.5"/><feComposite in2="hardAlpha" operator="arithmetic" k2="-1" k3="1"/><feColorMatrix values="0 0 0 0 1 0 0 0 0 0.9 0 0 0 0 0.975926 0 0 0 1 0"/><feBlend in2="shape" result="effect2_innerShadow_22_23"/></filter></defs></svg>
